dist/svg/code.svg

<!-- Generated by Trend Micro Style Portal -->
<svg version="1.1" xmlns="http://www.w3.org/2000/svg" width="16" height="16" viewBox="0 0 16 16">
  <title>code</title>
  <path fill="rgb(34,34,34)" d="M4.301 12.707l-4.301-4.353 4.301-4.354 0.699 0.707-3.603 3.647 3.603 3.646zM16 8.354l-4.301-4.354-0.699 0.707 3.603 3.646-3.603 3.647 0.699 0.707zM10 1.209l-0.979-0.209-3 14 0.979 0.209z"></path>
</svg>

<svg width="16" height="16" viewBox="0 0 16 16" fill="rgb(34, 34, 34)" xmlns="http://www.w3.org/2000/svg"><title>code</title><path d="M4.301 12.707L0 8.354L4.301 4L5 4.707L1.397 8.354L5 12L4.301 12.707ZM16 8.354L11.699 4L11 4.707L14.603 8.353L11 12L11.699 12.707L16 8.354ZM10 1.209L9.021 1L6.021 15L7 15.209L10 1.209Z" fill="rgb(34, 34, 34)" fill-opacity="1.00"/></svg>
